outputs/icons/hardware/scanner_sharp.svg

<svg xmlns="http://www.w3.org/2000/svg" width="1200" height="1200" fill="none"><g clip-path="url(#a)"><path fill="#000" d="M1100 600H900V200H300v400H100v400h1000zm-300 0H400V300h400zm100 250c-27.5 0-50-22.5-50-50s22.5-50 50-50 50 22.5 50 50-22.5 50-50 50"/></g><defs><clipPath id="a"><path fill="#fff" d="M0 0h1200v1200H0z"/></clipPath></defs></svg>

<svg width="1200" height="1200" viewBox="0 0 1200 1200" fill="none" xmlns="http://www.w3.org/2000/svg"><g clip-path="url(#clip0_133_42)"><path d="M1100 600H900V200H300V600H100V1000H1100V600ZM800 600H400V300H800V600ZM900 850C872.5 850 850 827.5 850 800C850 772.5 872.5 750 900 750C927.5 750 950 772.5 950 800C950 827.5 927.5 850 900 850Z" fill="#1D1E23"/></g><defs><clipPath id="clip0_133_42"><path width="24" fill="white" d="M0 0H1200V1200H0V0z"/></clipPath></defs></svg>
